X: 1416
T: An Try Marghak
R: waltz
M: 3/4
K: Dmajor
F|Bcd2cB|^ABc2cc|d2cB ^AB|c4zB|
cB BA GA|BA AG FE|F2AB cA|
F4zc|dc Bc dB|c2cB dc|BG GA BG|
A2F2zF|GEF2BA|GFE2GE|F2B^A dc|B4z:|

